style/rule-61-time-10.svg

<svg height="178pt" viewBox="0 0 180 178" width="180pt" xmlns="http://www.w3.org/2000/svg"><path d="m0 0h180v178h-180z" fill="#fff"/><g fill="#800080" fill-rule="evenodd"><path d="m77.226562 88.476562 24.546876-14.175781v28.347657zm0 0"/><path d="m101.773438 45.957031 24.550781-14.175781v28.347656zm0 0"/><path d="m28.128906 88.476562 24.546875-14.175781v28.347657zm0 0"/><path d="m101.773438 130.996094 24.550781-14.175782v28.347657zm0 0"/><path d="m150.871094 102.648438 24.550781-14.171876v28.34375zm0 0"/><path d="m150.871094 74.300781 24.550781-14.171875v28.347656zm0 0"/><path d="m126.324219 31.78125 24.546875-14.171875v28.347656zm0 0"/><path d="m101.773438 17.609375 24.550781-14.171875v28.34375zm0 0"/><path d="m52.675781 17.609375 24.550781-14.171875v28.34375zm0 0"/><path d="m28.128906 31.78125 24.546875-14.171875v28.347656zm0 0"/><path d="m3.578125 74.300781 24.550781-14.171875v28.347656zm0 0"/><path d="m3.578125 102.648438 24.550781-14.171876v28.34375zm0 0"/><path d="m28.128906 145.167969 24.546875-14.171875v28.34375zm0 0"/><path d="m52.675781 159.339844 24.550781-14.171875v28.347656zm0 0"/><path d="m101.773438 159.339844 24.550781-14.171875v28.347656zm0 0"/><path d="m126.324219 145.167969 24.546875-14.171875v28.34375zm0 0"/><path d="m126.324219 88.476562-24.550781-14.175781v28.347657zm0 0"/><path d="m101.773438 74.300781-24.546876-14.171875v28.347656zm0 0"/><path d="m101.773438 102.648438-24.546876-14.171876v28.34375zm0 0"/><path d="m126.324219 60.128906-24.550781-14.171875v28.34375zm0 0"/><path d="m77.226562 88.476562-24.550781-14.175781v28.347657zm0 0"/><path d="m126.324219 116.820312-24.550781-14.171874v28.347656zm0 0"/><path d="m175.421875 88.476562-24.550781-14.175781v28.347657zm0 0"/><path d="m150.871094 45.957031-24.546875-14.175781v28.347656zm0 0"/><path d="m126.324219 31.78125-24.550781-14.171875v28.347656zm0 0"/><path d="m77.226562 31.78125-24.550781-14.171875v28.347656zm0 0"/><path d="m52.675781 74.300781-24.546875-14.171875v28.347656zm0 0"/><path d="m52.675781 102.648438-24.546875-14.171876v28.34375zm0 0"/><path d="m77.226562 145.167969-24.550781-14.171875v28.34375zm0 0"/><path d="m126.324219 145.167969-24.550781-14.171875v28.34375zm0 0"/><path d="m150.871094 130.996094-24.546875-14.175782v28.347657zm0 0"/><path d="m150.871094 17.609375-24.546875-14.171875v28.34375zm0 0"/><path d="m28.128906 88.476562-24.550781-14.175781v28.347657zm0 0"/><path d="m150.871094 159.339844-24.546875-14.171875v28.347656zm0 0"/></g></svg>

<?xml version="1.0" encoding="UTF-8"?>
<svg xmlns="http://www.w3.org/2000/svg" xmlns:xlink="http://www.w3.org/1999/xlink" width="180pt" height="178pt" viewBox="0 0 180 178" version="1.1">
<g id="surface61">
<rect x="0" y="0" width="180" height="178" style="fill:rgb(100%,100%,100%);fill-opacity:1;stroke:none;"/>
<path style=" stroke:none;fill-rule:evenodd;fill:rgb(50.000763%,0%,50.000763%);fill-opacity:1;" d="M 77.226562 88.476562 L 101.773438 74.300781 L 101.773438 102.648438 Z M 77.226562 88.476562 "/>
<path style=" stroke:none;fill-rule:evenodd;fill:rgb(50.000763%,0%,50.000763%);fill-opacity:1;" d="M 101.773438 45.957031 L 126.324219 31.78125 L 126.324219 60.128906 Z M 101.773438 45.957031 "/>
<path style=" stroke:none;fill-rule:evenodd;fill:rgb(50.000763%,0%,50.000763%);fill-opacity:1;" d="M 28.128906 88.476562 L 52.675781 74.300781 L 52.675781 102.648438 Z M 28.128906 88.476562 "/>
<path style=" stroke:none;fill-rule:evenodd;fill:rgb(50.000763%,0%,50.000763%);fill-opacity:1;" d="M 101.773438 130.996094 L 126.324219 116.820312 L 126.324219 145.167969 Z M 101.773438 130.996094 "/>
<path style=" stroke:none;fill-rule:evenodd;fill:rgb(50.000763%,0%,50.000763%);fill-opacity:1;" d="M 150.871094 102.648438 L 175.421875 88.476562 L 175.421875 116.820312 Z M 150.871094 102.648438 "/>
<path style=" stroke:none;fill-rule:evenodd;fill:rgb(50.000763%,0%,50.000763%);fill-opacity:1;" d="M 150.871094 74.300781 L 175.421875 60.128906 L 175.421875 88.476562 Z M 150.871094 74.300781 "/>
<path style=" stroke:none;fill-rule:evenodd;fill:rgb(50.000763%,0%,50.000763%);fill-opacity:1;" d="M 126.324219 31.78125 L 150.871094 17.609375 L 150.871094 45.957031 Z M 126.324219 31.78125 "/>
<path style=" stroke:none;fill-rule:evenodd;fill:rgb(50.000763%,0%,50.000763%);fill-opacity:1;" d="M 101.773438 17.609375 L 126.324219 3.4375 L 126.324219 31.78125 Z M 101.773438 17.609375 "/>
<path style=" stroke:none;fill-rule:evenodd;fill:rgb(50.000763%,0%,50.000763%);fill-opacity:1;" d="M 52.675781 17.609375 L 77.226562 3.4375 L 77.226562 31.78125 Z M 52.675781 17.609375 "/>
<path style=" stroke:none;fill-rule:evenodd;fill:rgb(50.000763%,0%,50.000763%);fill-opacity:1;" d="M 28.128906 31.78125 L 52.675781 17.609375 L 52.675781 45.957031 Z M 28.128906 31.78125 "/>
<path style=" stroke:none;fill-rule:evenodd;fill:rgb(50.000763%,0%,50.000763%);fill-opacity:1;" d="M 3.578125 74.300781 L 28.128906 60.128906 L 28.128906 88.476562 Z M 3.578125 74.300781 "/>
<path style=" stroke:none;fill-rule:evenodd;fill:rgb(50.000763%,0%,50.000763%);fill-opacity:1;" d="M 3.578125 102.648438 L 28.128906 88.476562 L 28.128906 116.820312 Z M 3.578125 102.648438 "/>
<path style=" stroke:none;fill-rule:evenodd;fill:rgb(50.000763%,0%,50.000763%);fill-opacity:1;" d="M 28.128906 145.167969 L 52.675781 130.996094 L 52.675781 159.339844 Z M 28.128906 145.167969 "/>
<path style=" stroke:none;fill-rule:evenodd;fill:rgb(50.000763%,0%,50.000763%);fill-opacity:1;" d="M 52.675781 159.339844 L 77.226562 145.167969 L 77.226562 173.515625 Z M 52.675781 159.339844 "/>
<path style=" stroke:none;fill-rule:evenodd;fill:rgb(50.000763%,0%,50.000763%);fill-opacity:1;" d="M 101.773438 159.339844 L 126.324219 145.167969 L 126.324219 173.515625 Z M 101.773438 159.339844 "/>
<path style=" stroke:none;fill-rule:evenodd;fill:rgb(50.000763%,0%,50.000763%);fill-opacity:1;" d="M 126.324219 145.167969 L 150.871094 130.996094 L 150.871094 159.339844 Z M 126.324219 145.167969 "/>
<path style=" stroke:none;fill-rule:evenodd;fill:rgb(50.000763%,0%,50.000763%);fill-opacity:1;" d="M 126.324219 88.476562 L 101.773438 74.300781 L 101.773438 102.648438 Z M 126.324219 88.476562 "/>
<path style=" stroke:none;fill-rule:evenodd;fill:rgb(50.000763%,0%,50.000763%);fill-opacity:1;" d="M 101.773438 74.300781 L 77.226562 60.128906 L 77.226562 88.476562 Z M 101.773438 74.300781 "/>
<path style=" stroke:none;fill-rule:evenodd;fill:rgb(50.000763%,0%,50.000763%);fill-opacity:1;" d="M 101.773438 102.648438 L 77.226562 88.476562 L 77.226562 116.820312 Z M 101.773438 102.648438 "/>
<path style=" stroke:none;fill-rule:evenodd;fill:rgb(50.000763%,0%,50.000763%);fill-opacity:1;" d="M 126.324219 60.128906 L 101.773438 45.957031 L 101.773438 74.300781 Z M 126.324219 60.128906 "/>
<path style=" stroke:none;fill-rule:evenodd;fill:rgb(50.000763%,0%,50.000763%);fill-opacity:1;" d="M 77.226562 88.476562 L 52.675781 74.300781 L 52.675781 102.648438 Z M 77.226562 88.476562 "/>
<path style=" stroke:none;fill-rule:evenodd;fill:rgb(50.000763%,0%,50.000763%);fill-opacity:1;" d="M 126.324219 116.820312 L 101.773438 102.648438 L 101.773438 130.996094 Z M 126.324219 116.820312 "/>
<path style=" stroke:none;fill-rule:evenodd;fill:rgb(50.000763%,0%,50.000763%);fill-opacity:1;" d="M 175.421875 88.476562 L 150.871094 74.300781 L 150.871094 102.648438 Z M 175.421875 88.476562 "/>
<path style=" stroke:none;fill-rule:evenodd;fill:rgb(50.000763%,0%,50.000763%);fill-opacity:1;" d="M 150.871094 45.957031 L 126.324219 31.78125 L 126.324219 60.128906 Z M 150.871094 45.957031 "/>
<path style=" stroke:none;fill-rule:evenodd;fill:rgb(50.000763%,0%,50.000763%);fill-opacity:1;" d="M 126.324219 31.78125 L 101.773438 17.609375 L 101.773438 45.957031 Z M 126.324219 31.78125 "/>
<path style=" stroke:none;fill-rule:evenodd;fill:rgb(50.000763%,0%,50.000763%);fill-opacity:1;" d="M 77.226562 31.78125 L 52.675781 17.609375 L 52.675781 45.957031 Z M 77.226562 31.78125 "/>
<path style=" stroke:none;fill-rule:evenodd;fill:rgb(50.000763%,0%,50.000763%);fill-opacity:1;" d="M 52.675781 74.300781 L 28.128906 60.128906 L 28.128906 88.476562 Z M 52.675781 74.300781 "/>
<path style=" stroke:none;fill-rule:evenodd;fill:rgb(50.000763%,0%,50.000763%);fill-opacity:1;" d="M 52.675781 102.648438 L 28.128906 88.476562 L 28.128906 116.820312 Z M 52.675781 102.648438 "/>
<path style=" stroke:none;fill-rule:evenodd;fill:rgb(50.000763%,0%,50.000763%);fill-opacity:1;" d="M 77.226562 145.167969 L 52.675781 130.996094 L 52.675781 159.339844 Z M 77.226562 145.167969 "/>
<path style=" stroke:none;fill-rule:evenodd;fill:rgb(50.000763%,0%,50.000763%);fill-opacity:1;" d="M 126.324219 145.167969 L 101.773438 130.996094 L 101.773438 159.339844 Z M 126.324219 145.167969 "/>
<path style=" stroke:none;fill-rule:evenodd;fill:rgb(50.000763%,0%,50.000763%);fill-opacity:1;" d="M 150.871094 130.996094 L 126.324219 116.820312 L 126.324219 145.167969 Z M 150.871094 130.996094 "/>
<path style=" stroke:none;fill-rule:evenodd;fill:rgb(50.000763%,0%,50.000763%);fill-opacity:1;" d="M 150.871094 17.609375 L 126.324219 3.4375 L 126.324219 31.78125 Z M 150.871094 17.609375 "/>
<path style=" stroke:none;fill-rule:evenodd;fill:rgb(50.000763%,0%,50.000763%);fill-opacity:1;" d="M 28.128906 88.476562 L 3.578125 74.300781 L 3.578125 102.648438 Z M 28.128906 88.476562 "/>
<path style=" stroke:none;fill-rule:evenodd;fill:rgb(50.000763%,0%,50.000763%);fill-opacity:1;" d="M 150.871094 159.339844 L 126.324219 145.167969 L 126.324219 173.515625 Z M 150.871094 159.339844 "/>
</g>
</svg>
